X: 42944
T: William Taylor's Table Top
R: hornpipe
M: 4/4
K: Aminor
"Am"A2A2A>B c>A|"G"B>c B>A G4|"Am"e>d c>B A>B c>A|"G"B>c B>A G2E2|"Am"A2A2A>B c>A|"G"B>c B>A G4|"Am"e>d c>B A>B c>B|A2G2A4:|
"Am"e>c A>ce2e2|"G"d>B G>B d2d2|"G"c>B A>G E>G A>B|"Am"c>B A>G E>G A>c|e>c A>ce2e2|"G"d>B G>B d2d2|"Am"c>B A>G E>G A>c|A2G2A4:|

